X:1
T:Title
%%score { ( 1 3 ) | ( 2 4 5 ) }
L:1/8
Q:1/4=100
M:4/4
K:Ab
V:1 treble nm="Grand Piano"
V:3 treble 
V:2 bass 
V:4 bass 
V:5 bass 
V:1
 [CE]>[CF] [CE]>[CF] [CE]2 [Ec][Fd] | [Ec]2 [DB][CA] B4 | E>F E>F E2 Bc | B2 AG [CA]3 [Ec] | %4
w: J.~B.~Herbert * * * * * *||||
 cB B2 [Gd]3 [DEB] | [DEB][CEA] [CEA]2 [Ec]2 [Ec][Ec] | B B2 c BG[B,A]F | E2 G2 B2 E2 | %8
w: ||||
 c3 [EA] [DB]3 [G,DE] |[M:3/4] [A,CA]6 |[M:1/4] (3ABc |[M:4/4] d3 e dcBA | e3 f ecBA | %13
w: |||||
 f>e dc e>d cB | d>c BA [GB]2 [Ae][EBd] | [EAc][EGB][EAc][EGB] [EAc][EGB][EAc][EGB] | %16
w: |||
 [EAc][EGB][EAc][A=d] [Ge]BGE | F4 E2 z E | =E4 _E2 (3EAc | e2 [Ec][EA] [DF]2 [=DB]2 | %20
w: ||||
 E6[K:bass] z2 | [CE]>[CF] [CE]>[CF] [CE]2 [Ec][Fd] | [Ec]2 [DB][CA] B4 | E>F E>F E2 Bc | %24
w: ||||
 B2 AG [CA]3 [Ec] | cB B2 [Gd]3 [DEB] | [DEB][CEA] [CEA]2 [Ec]2 [Ec][Ec] | B B2 c BG=D-[DF] | %28
w: ||||
 E2 G2 B2 E2 | c3 [EA] [DB]3 [G,DE] |[M:3/4] [A,CA]6 |[M:1/4] (3ABc |[M:4/4] d3 e dcBA | %33
w: |||||
 e3 f ecBA | f>e dc e>d cB | d>c BA [GB]2 [Ae][EBd] | [EAc][EGB][EAc][EGB] [EAc][EGB][EAc][EGB] | %37
w: ||||
 [EAc][EGB][EAc][A=d] [Ge]BGE | [Ece]2 [_cf]2- [cf][=ce][EAc][CA] | [Ece]2 [_cf]2- [cf][E=ce]cA | %40
w: |||
 e2 cA e2 cA |[M:9/8] =e2 f- f3 _ecA | e2 c A E2 [Ge]3 |[M:4/4] a8- | a6 z2 |] %45
w: |||||
V:2
 [A,,A,]>[A,,A,] [A,,A,]>[A,,A,] [A,,A,]2 [A,,A,][A,,A,] | [A,,A,]2 [A,,E,][A,,E,] [E,G,D]4 | %2
 [E,G,D]>[E,G,D] [E,G,D]>[E,G,D] [E,G,D]2 [E,G,D][E,G,E] | [E,G,D]2 [E,C][E,B,] [A,,E,]3 [A,,A,] | %4
 [E,A,E][E,G,E] [E,G,E]2 [E,B,]3 E, | A,,A,, A,,2 [A,,A,]2 [A,,A,][C,A,] | %6
 [E,G,E] [E,G,E]2 [E,A,E] [E,G,E][E,B,E] z A, | [E,G,]2 [E,B,E]2 [E,G,E]2 [G,B,]2 | %8
 [A,E]3 [C,A,] [E,G,]3 E, |[M:3/4] A,,6 |[M:1/4] (3A,B,[K:treble]C |[M:4/4] D3 E DC[K:bass]B,A, | %12
 [E,D]4[K:treble] [A,CA]2 [B,DG][CE] | [DFd]>[CEc] [B,DB][A,CA] [CEc]>[B,DB] [A,CA][G,B,G] | %14
 [B,DB]>[A,CA] [G,B,G][K:bass][F,A,F] E,2 F,G, | A,E,A,E, A,E,A,E, | A,E,A,[F,B,] B,[G,E][E,E]E, | %17
 F,4 E,2 z E, | =E,4 _E,2 z2 | [A,CA]2 [A,,A,][C,A,] [D,A,]2 [B,,A,]2 | [E,G,]6 z2 | %21
 [A,,A,]>[A,,A,] [A,,A,]>[A,,A,] [A,,A,]2 [A,,A,][A,,A,] | [A,,A,]2 [A,,E,][A,,E,] [E,G,D]4 | %23
 [E,G,D]>[E,G,D] [E,G,D]>[E,G,D] [E,G,D]2 [E,G,D][E,G,E] | [E,G,D]2 [E,C][E,B,] [A,,E,]3 [A,,A,] | %25
 [E,A,E][E,G,E] [E,G,E]2 [E,B,]3 E, | A,,A,, A,,2 [A,,A,]2 [A,,A,][C,A,] | %27
 [E,G,E] [E,G,E]2 [E,A,E] [E,G,E][E,B,E] z A, | [E,G,]2 [E,B,E]2 [E,G,E]2 [G,B,]2 | %29
 [A,E]3 [C,A,] [E,G,]3 E, |[M:3/4] A,,6 |[M:1/4] (3A,B,[K:treble]C |[M:4/4] D3 E DC[K:bass]B,A, | %33
 [E,D]4[K:treble] [A,CA]2 [B,DG][CE] | [DFd]>[CEc] [B,DB][A,CA] [CEc]>[B,DB] [A,CA][G,B,G] | %35
 [B,DB]>[A,CA] [G,B,G][K:bass][F,A,F] E,2 F,G, | A,E,A,E, A,E,A,E, | A,E,A,[F,B,] B,[G,E][E,E]E, | %38
 z2 =D4 z2 | z2 =D4[K:treble] z2 | [A,CA]2 [A,CE][A,CE] [A,CA]2 .[A,CA]2 | %41
[M:9/8] [C=Ec]2 [DFd]- [DFd]3 [A,CA][A,_EG][CE] | E2 C[K:bass] A, E,2 [E,D]3 | %43
[M:4/4][K:treble] C2 z2 z4 | z8 |] %45
V:3
 x8 | x8 | x8 | x8 | x8 | x8 | z4 z2 =D2 | x8 | x8 |[M:3/4] x6 |[M:1/4] x2 |[M:4/4] x8 | G4 z4 | %13
 x8 | z4 E4 | x8 | x8 | x8 | x8 | x8 | z2[K:bass] B,,G,, E,,2 z2 | x8 | x8 | x8 | x8 | x8 | x8 | %27
 z4 z2 .[B,A]2 | x8 | x8 |[M:3/4] x6 |[M:1/4] x2 |[M:4/4] x8 | G4 z4 | x8 | z4 E4 | x8 | x8 | x8 | %39
 x8 | x8 |[M:9/8] x9 | x9 |[M:4/4] z2 F2 E2 F2 | [CE]6 z2 |] %45
V:4
 x8 | x8 | x8 | x8 | x8 | x8 | z4 z2 B,,2 | x8 | x8 |[M:3/4] x6 |[M:1/4] x4/3[K:treble] x2/3 | %11
[M:4/4] x6[K:bass] x2 | x4[K:treble] x4 | x8 | x3[K:bass] x5 | x8 | z4 E,2 z2 | x8 | x8 | x8 | x8 | %21
 x8 | x8 | x8 | x8 | x8 | x8 | z4 z2 B,,2 | x8 | x8 |[M:3/4] x6 |[M:1/4] x4/3[K:treble] x2/3 | %32
[M:4/4] x6[K:bass] x2 | x4[K:treble] x4 | x8 | x3[K:bass] x5 | x8 | z4 E,2 z2 | z4 z EA,A, | %39
 z4 A,A,[K:treble][A,EA][A,C] | x8 |[M:9/8] x9 | x3[K:bass] x6 | %43
[M:4/4][K:treble] [A,A]2- [A,-DA-]2 [A,-CA-]2 [A,DA-]2 | [A,,A]6 z2 |] %45
V:5
 x8 | x8 | x8 | x8 | x8 | x8 | x8 | x8 | x8 |[M:3/4] x6 |[M:1/4] x4/3[K:treble] x2/3 | %11
[M:4/4] x6[K:bass] x2 | x4[K:treble] x4 | x8 | x3[K:bass] x5 | x8 | x8 | x8 | x8 | x8 | x8 | x8 | %22
 x8 | x8 | x8 | x8 | x8 | x8 | x8 | x8 |[M:3/4] x6 |[M:1/4] x4/3[K:treble] x2/3 | %32
[M:4/4] x6[K:bass] x2 | x4[K:treble] x4 | x8 | x3[K:bass] x5 | x8 | x8 | A,4 A,2 z2 | %39
 A,4 z4[K:treble] | x8 |[M:9/8] x9 | x3[K:bass] x6 |[M:4/4][K:treble] x8 | x8 |] %45

